X:1
T:Copy of Funky Dragonfly
T:Copy of Funky Dragonfly
T:Sean Barrett Jr
C:Sean Barrett Jr
Z:All Rights Reserved
L:1/8
Q:1/4=104
M:4/4
K:C
V:1 treble nm="Flute" snm="Fl"
%%MIDI program 73
V:1
 C/_E/F-FG/_B/- B_A/G/- F z | z DF/F/G- _B/B/c-c z :| F_E/F/- F4 z2 | _B_A/B/- B4 z2 | %4
 F_E/E/ z2 CE F2- | .F_AG/F/G/F/ z4 | F3 _E C/B,/_B,-B,F- | F z FF _AF-F/G/A- | A6 z2 | z8 | z8 | %11
 z8 | z8 | [Fc]8 | f2 z2 z4 |] %15

